agir/front/components/genericComponents/logos/whatsapp.svg

<svg width="24" height="25" viewBox="0 0 24 25" fill="none" xmlns="http://www.w3.org/2000/svg">
<path d="M20.0326 3.907C17.8634 1.63673 14.8649 0.404297 11.8026 0.404297C5.29524 0.404297 0.063798 5.78808 0.127596 12.3394C0.127596 14.4151 0.701778 16.4259 1.65875 18.2421L0 24.4043L6.18841 22.7827C7.91095 23.7556 9.82489 24.2097 11.7388 24.2097C18.1824 24.2097 23.4139 18.8259 23.4139 12.2746C23.4139 9.09619 22.2017 6.1124 20.0326 3.907ZM11.8026 22.1989C10.0801 22.1989 8.35754 21.7448 6.89019 20.8367L6.5074 20.6421L2.80711 21.6151L3.76408 17.9178L3.50889 17.5286C0.701778 12.9232 2.04154 6.82592 6.63499 3.97186C11.2285 1.11781 17.1617 2.47997 19.9688 7.15024C22.7759 11.8205 21.4361 17.8529 16.8427 20.707C15.3753 21.68 13.589 22.1989 11.8026 22.1989ZM17.4169 14.9989L16.7151 14.6746C16.7151 14.6746 15.6943 14.2205 15.0563 13.8962C14.9925 13.8962 14.9287 13.8313 14.8649 13.8313C14.6735 13.8313 14.5459 13.8962 14.4184 13.9611C14.4184 13.9611 14.3546 14.0259 13.4614 15.0638C13.3976 15.1935 13.27 15.2584 13.1424 15.2584H13.0786C13.0148 15.2584 12.8872 15.1935 12.8234 15.1286L12.5044 14.9989C11.8026 14.6746 11.1647 14.2854 10.6543 13.7665C10.5267 13.6367 10.3353 13.507 10.2077 13.3773C9.7611 12.9232 9.31451 12.4043 8.99552 11.8205L8.93172 11.6908C8.86792 11.6259 8.86792 11.5611 8.80413 11.4313C8.80413 11.3016 8.80413 11.1719 8.86792 11.107C8.86792 11.107 9.12312 10.7827 9.31451 10.5881C9.44211 10.4584 9.5059 10.2638 9.6335 10.134C9.7611 9.93943 9.82489 9.67997 9.7611 9.48538C9.6973 9.16105 8.93172 7.4097 8.74033 7.02051C8.61273 6.82592 8.48514 6.76105 8.29374 6.69619H8.10235C7.97475 6.69619 7.78336 6.69619 7.59196 6.69619C7.46437 6.69619 7.33677 6.76105 7.20918 6.76105L7.14538 6.82592C7.01778 6.89078 6.89019 7.02051 6.76259 7.08538C6.63499 7.21511 6.5712 7.34484 6.4436 7.47457C5.99701 8.05835 5.74182 8.77186 5.74182 9.48538C5.74182 10.0043 5.86942 10.5232 6.06081 10.9773L6.12461 11.1719C6.69879 12.4043 7.46437 13.507 8.48514 14.48L8.74033 14.7394C8.93172 14.934 9.12312 15.0638 9.25071 15.2584C10.5905 16.4259 12.1216 17.2692 13.8442 17.7232C14.0356 17.7881 14.2908 17.7881 14.4822 17.8529C14.6735 17.8529 14.9287 17.8529 15.1201 17.8529C15.4391 17.8529 15.8219 17.7232 16.0771 17.5935C16.2685 17.4638 16.3961 17.4638 16.5237 17.334L16.6513 17.2043C16.7789 17.0746 16.9065 17.0097 17.0341 16.88C17.1617 16.7502 17.2893 16.6205 17.3531 16.4908C17.4807 16.2313 17.5445 15.907 17.6083 15.5827C17.6083 15.4529 17.6083 15.2584 17.6083 15.1286C17.6083 15.1286 17.5445 15.0638 17.4169 14.9989Z" fill="#00E676"/>
</svg>

<svg width="24" height="25" fill="none" xmlns="http://www.w3.org/2000/svg"><path d="M20.033 3.907a11.392 11.392 0 0 0-8.23-3.503C5.295.404.063 5.788.128 12.34c0 2.076.574 4.087 1.53 5.903L0 24.404l6.188-1.621c1.723.973 3.637 1.427 5.55 1.427 6.444 0 11.676-5.384 11.676-11.935 0-3.179-1.212-6.163-3.381-8.368Zm-8.23 18.292c-1.723 0-3.445-.454-4.913-1.362l-.383-.195-3.7.973.957-3.697-.255-.39C.702 12.924 2.042 6.827 6.635 3.973 11.229 1.118 17.162 2.48 19.969 7.15c2.807 4.67 1.467 10.703-3.126 13.557-1.468.973-3.254 1.492-5.04 1.492Zm5.614-7.2-.702-.324s-1.02-.455-1.659-.779c-.063 0-.127-.065-.191-.065a.91.91 0 0 0-.447.13s-.063.065-.957 1.103a.35.35 0 0 1-.319.194h-.063a.48.48 0 0 1-.256-.13l-.319-.13c-.701-.323-1.34-.713-1.85-1.231-.127-.13-.319-.26-.446-.39-.447-.454-.893-.973-1.212-1.557l-.064-.13c-.064-.064-.064-.129-.128-.259 0-.13 0-.26.064-.324 0 0 .255-.324.447-.519.127-.13.19-.324.319-.454.127-.195.19-.454.127-.649-.064-.324-.83-2.075-1.02-2.464-.128-.195-.256-.26-.447-.325h-.702c-.128 0-.255.065-.383.065l-.064.065c-.127.065-.255.195-.382.26-.128.13-.192.259-.32.389a3.343 3.343 0 0 0-.701 2.01c0 .52.127 1.038.319 1.492l.064.195a10.802 10.802 0 0 0 2.36 3.308l.255.26c.192.194.383.324.51.518 1.34 1.168 2.872 2.011 4.594 2.465.192.065.447.065.638.13h.638c.32 0 .702-.13.957-.26.191-.13.32-.13.447-.259l.127-.13c.128-.13.256-.194.383-.324.128-.13.255-.26.32-.39.127-.259.19-.583.254-.907v-.454s-.064-.065-.191-.13Z" fill="#00E676"/></svg>
